X:1753
L:1/8
M:2/4
K:F
"F" A/c/c c>A |"C7" AG G/B/B | B/d/d d>c |"F" dc c/B/A | A/c/c c>A |"C7" AG G/B/B | 
 B/d/d d/c/B/G/ |1"F" FF F z :|2"F" FF Fc |:"F" A/G/A/B/ c/B/A/c/ |"C7" BB B/A/G | 
 B/A/B/d/ c/B/A/G/ |"F" AA/G/ Fc | A/G/A/B/ c/B/A/c/ |"C7" BB/A/ GG | e>d c/B/A/G/ |1"F" FF Fc :|2 
"F" FF F z |:[K:Bb]"Bb" F>B d>B |"F7" BA A/B/c | A>c e>c |"Bb" cB d/c/B | F>c d>B |"F7" BA A/B/c | 
 A/e/e e/d/c/A/ |"Bb" BB B z :|"Bb" D>F F/E/D/F/ | d2 z F | d>c"Bb7" c>B |"Cm/Eb" A2 G2 | 
"F7" cc/c/ cc |"C7" c3 B |"F7" AG FE |"Bb" ED F/d/B | D>F F/E/D/F/ | d2 z F | d>d"Bb7" c>B | 
"Cm/Eb" A2 G2 |"F7" A/c/c c/B/A/G/ |"Bb" F3 B |"F7" A/c/c F/A/A |"Bb" BB B z |]

